X: 32086
T: People's Palace
R: jig
M: 6/8
K: Adorian
|:DEG AGA|BAB GED|DEG ABc|BGE E2E|
DEG ABc|B/c/dB GAB|c2e d2e|1 dBG A2A:|2 dBG A2g||
|:e2g d2e|B2d BAG|e2g deg|BAG A2e|
gab age|deg B2B|d2d gdB|1 BAG A2g:|2 BAG A2A||

